public/images/poses-lg/Garland.svg

<svg width="800" height="800" fill="none" xmlns="http://www.w3.org/2000/svg"><path d="M473.744 710.369c1.393-26.413-17.863-69.653-17.863-69.653-45.944 13.793-108.088 0-108.088 0s-18.417 62.201-16.601 75.116" fill="#fff"/><path d="M473.744 710.369c1.393-26.413-17.863-69.653-17.863-69.653-45.944 13.793-108.088 0-108.088 0s-18.417 62.201-16.601 75.116" stroke="#000" stroke-width="5" stroke-miterlimit="10"/><path d="M473.744 710.369c1.393-26.413-17.863-69.653-17.863-69.653-45.944 13.793-108.088 0-108.088 0s-18.417 62.201-16.601 75.116" stroke="#000" stroke-width="5" stroke-miterlimit="10"/><path d="M456.941 651.01c-35.609 9.74-72.153 10.185-109.971-1.984 5.092-44.318-1.365-86.951-1.365-86.951 9.915-28.861 6.162-53.059 6.162-53.059s10.237-3.724 23.42-14.013c13.184-10.319 9.727-45.07 9.727-45.07s.858.131 16.936.131 16.748-.131 16.748-.131-3.297 34.751 9.886 45.07c13.212 10.289 25.109 14.013 25.109 14.013s-5.411 24.198 4.474 53.059c0-.001-6.644 43.917-1.126 88.935Z" fill="#fff" stroke="#000" stroke-width="5" stroke-miterlimit="10"/><path d="M456.941 651.01c-35.609 9.74-72.153 10.185-109.971-1.984 5.092-44.318-1.365-86.951-1.365-86.951 9.915-28.861 6.162-53.059 6.162-53.059s10.237-3.724 23.42-14.013c13.184-10.319 9.727-45.07 9.727-45.07s.858.131 16.936.131 16.748-.131 16.748-.131-3.297 34.751 9.886 45.07c13.212 10.289 25.109 14.013 25.109 14.013s-5.411 24.198 4.474 53.059c0-.001-6.644 43.917-1.126 88.935Z" stroke="#000" stroke-width="5" stroke-miterlimit="10"/><path d="M386.601 683.19s-88.427-107.184-99.145-109.864c-10.719-2.681-29.476 0-32.156 13.398-2.355 11.78 9.787 89.824 14.575 117.625.702 4.061 1.712 8.044 2.843 12a35.564 35.564 0 0 1 1.339 9.714c0 8.039 0 13.398 2.68 32.156s-2.68 18.758-8.039 21.437c-5.359 2.679-10.719 5.36-2.679 10.718 0 0 21.437 2.679 32.155-2.68 10.718-5.36-2.679-29.476 0-37.515 2.68-8.038 10.718-16.077 5.36-29.475 0 0-5.36-5.36-8.039-10.719-2.679-5.36 2.679-40.194 0-56.272l-2.679-16.078s16.077 80.389 66.99 96.467c27.062 5.143 53.88 5.579 80.389 0 50.912-16.077 66.989-96.465 66.989-96.465l-2.679 16.078c-2.68 16.078 2.679 50.912 0 56.272-2.68 5.36-8.039 10.719-8.039 10.719-5.359 13.398 2.68 21.436 5.36 29.476 2.68 8.038-10.718 32.155 0 37.514 10.718 5.359 32.156 2.68 32.156 2.68 8.039-5.36 2.68-8.038-2.68-10.718-5.36-2.68-10.718-2.68-8.038-21.437 2.68-18.757 2.68-24.116 2.68-32.156 0-4.019.669-7.368 1.34-9.713 1.129-3.957 2.142-7.94 2.841-12 4.793-27.802 16.93-105.846 14.575-117.626-2.679-13.398-21.436-16.078-32.156-13.398-10.718 2.68-99.146 109.865-99.146 109.865" fill="#fff"/><path d="M386.601 683.19s-88.427-107.184-99.145-109.864c-10.719-2.681-29.476 0-32.156 13.398-2.355 11.78 9.787 89.824 14.575 117.625.702 4.061 1.712 8.044 2.843 12a35.564 35.564 0 0 1 1.339 9.714c0 8.039 0 13.398 2.68 32.156s-2.68 18.758-8.039 21.437c-5.359 2.679-10.719 5.36-2.679 10.718 0 0 21.437 2.679 32.155-2.68 10.718-5.36-2.679-29.476 0-37.515 2.68-8.038 10.718-16.077 5.36-29.475 0 0-5.36-5.36-8.039-10.719-2.679-5.36 2.679-40.194 0-56.272l-2.679-16.078s16.077 80.389 66.99 96.467c27.062 5.143 53.88 5.579 80.389 0 50.912-16.077 66.989-96.465 66.989-96.465l-2.679 16.078c-2.68 16.078 2.679 50.912 0 56.272-2.68 5.36-8.039 10.719-8.039 10.719-5.359 13.398 2.68 21.436 5.36 29.476 2.68 8.038-10.718 32.155 0 37.514 10.718 5.359 32.156 2.68 32.156 2.68 8.039-5.36 2.68-8.038-2.68-10.718-5.36-2.68-10.718-2.68-8.038-21.437 2.68-18.757 2.68-24.116 2.68-32.156 0-4.019.669-7.368 1.34-9.713 1.129-3.957 2.142-7.94 2.841-12 4.793-27.802 16.93-105.846 14.575-117.626-2.679-13.398-21.436-16.078-32.156-13.398-10.718 2.68-99.146 109.865-99.146 109.865" stroke="#000" stroke-width="5" stroke-miterlimit="10"/><path d="M386.601 683.19s-88.427-107.184-99.145-109.864c-10.719-2.681-29.476 0-32.156 13.398-2.355 11.78 9.787 89.824 14.575 117.625.702 4.061 1.712 8.044 2.843 12a35.564 35.564 0 0 1 1.339 9.714c0 8.039 0 13.398 2.68 32.156s-2.68 18.758-8.039 21.437c-5.359 2.679-10.719 5.36-2.679 10.718 0 0 21.437 2.679 32.155-2.68 10.718-5.36-2.679-29.476 0-37.515 2.68-8.038 10.718-16.077 5.36-29.475 0 0-5.36-5.36-8.039-10.719-2.679-5.36 2.679-40.194 0-56.272l-2.679-16.078s16.077 80.389 66.99 96.467c27.062 5.143 53.88 5.579 80.389 0 50.912-16.077 66.989-96.465 66.989-96.465l-2.679 16.078c-2.68 16.078 2.679 50.912 0 56.272-2.68 5.36-8.039 10.719-8.039 10.719-5.359 13.398 2.68 21.436 5.36 29.476 2.68 8.038-10.718 32.155 0 37.514 10.718 5.359 32.156 2.68 32.156 2.68 8.039-5.36 2.68-8.038-2.68-10.718-5.36-2.68-10.718-2.68-8.038-21.437 2.68-18.757 2.68-24.116 2.68-32.156 0-4.019.669-7.368 1.34-9.713 1.129-3.957 2.142-7.94 2.841-12 4.793-27.802 16.93-105.846 14.575-117.626-2.679-13.398-21.436-16.078-32.156-13.398-10.718 2.68-99.146 109.865-99.146 109.865" stroke="#000" stroke-width="5" stroke-miterlimit="10"/><path d="M372.492 378.044c-19.332 40.079 11.186 88.215 28.747 88.448 17.56.23 49.34-47.087 31.068-87.661-11.517-25.574-47.629-26.05-59.815-.787Z" fill="#fff" stroke="#000" stroke-width="5" stroke-miterlimit="10"/><path d="M372.492 378.044c-19.332 40.079 11.186 88.215 28.747 88.448 17.56.23 49.34-47.087 31.068-87.661-11.517-25.574-47.629-26.05-59.815-.787Z" stroke="#000" stroke-width="5" stroke-miterlimit="10"/><path d="M515.147 426.301c-15.417-8.466-11.506-19.323-25.187-30.177-13.676-10.858-30.622-3.526-37.777-21.064-7.089-17.375-30.185-27.298-50.311-27.056v-.002l-.033.002-.03-.002v.002c-20.125-.243-43.224 9.68-50.311 27.056-7.158 17.538-24.101 10.206-37.779 21.064-13.679 10.854-9.77 21.711-25.185 30.177-15.416 8.468-16.67 7.682-16.067 14.332.89 9.803 35.945 5.925 62.235 6.595 5.152.133 23.92 5.348 28.939 6.526 10.268 2.402 23.454 2.062 23.729-1.618.433-5.861-1.444-19.806-5.446-26.943-3.998-7.138-12.259-4.835-12.259-15.308 0-9.772 4.011-5.966 13.237-14.654 8.134-7.662 16.275-16.533 18.937-23.74 2.664 7.207 10.808 16.078 18.94 23.74 9.225 8.688 13.237 4.882 13.237 14.654 0 10.473-8.261 8.17-12.261 15.308-3.999 7.136-5.878 21.081-5.443 26.943.27 3.68 13.46 4.02 23.725 1.618 5.017-1.178 23.787-6.393 28.939-6.526 26.292-.67 61.347 3.208 62.237-6.595.606-6.65-.653-5.864-16.066-14.332Z" fill="#100200" stroke="#000" stroke-width="5" stroke-miterlimit="10"/><path d="M363.728 502.822s14.314 21.547 38.315 21.547c24.005 0 38.319-21.547 38.319-21.547" fill="#fff"/><path d="M363.728 502.822s14.314 21.547 38.315 21.547c24.005 0 38.319-21.547 38.319-21.547" stroke="#000" stroke-width="5" stroke-miterlimit="10"/><path d="M363.728 502.822s14.314 21.547 38.315 21.547c24.005 0 38.319-21.547 38.319-21.547" stroke="#000" stroke-width="5" stroke-miterlimit="10"/><path d="M389.566 626.918c3.73.389 5.247-45.554 7.867-48.233l2.624-2.679s2.623-2.68 2.623 8.037v49.532c0 4.941-4.638 8.5-9.282 7.125 0 0-.867-.267-1.208-.384-36.234 1.697-70.784 1.357-102.284-2.681-7.867-5.359-10.49-8.038-5.244-32.155 5.244-24.117 39.34-80.389 44.584-88.428 5.244-8.038 22.491-8.038 22.491-8.038 5.247 2.679-2.715 50.952-8.039 53.592-5.32 2.642-32.125 53.592-32.125 53.592s.57 2.682 77.993 10.72Z" fill="#fff" stroke="#000" stroke-width="5" stroke-miterlimit="10"/><path d="M389.566 626.918c3.73.389 5.247-45.554 7.867-48.233l2.624-2.679s2.623-2.68 2.623 8.037v49.532c0 4.941-4.638 8.5-9.282 7.125 0 0-.867-.267-1.208-.384-36.234 1.697-70.784 1.357-102.284-2.681-7.867-5.359-10.49-8.038-5.244-32.155 5.244-24.117 39.34-80.389 44.584-88.428 5.244-8.038 22.491-8.038 22.491-8.038 5.247 2.679-2.715 50.952-8.039 53.592-5.32 2.642-32.125 53.592-32.125 53.592s.57 2.682 77.993 10.72Z" stroke="#000" stroke-width="5" stroke-miterlimit="10"/><path d="M415.795 626.918c-3.732.389-5.247-45.554-7.871-48.233l-2.62-2.679s-2.624-2.68-2.624 8.037v49.532c0 4.941 4.637 8.5 9.281 7.125 0 0 .866-.267 1.209-.384 36.235 1.697 70.785 1.357 102.284-2.681 7.868-5.359 10.49-8.038 5.243-32.155-5.243-24.117-39.339-80.389-44.583-88.428-5.246-8.038-22.493-8.038-22.493-8.038-5.247 2.679.012 50.952 5.329 53.592 5.323 2.642 34.835 53.592 34.835 53.592s-.567 2.682-77.99 10.72Z" fill="#fff" stroke="#000" stroke-width="5" stroke-miterlimit="10"/><path d="M415.795 626.918c-3.732.389-5.247-45.554-7.871-48.233l-2.62-2.679s-2.624-2.68-2.624 8.037v49.532c0 4.941 4.637 8.5 9.281 7.125 0 0 .866-.267 1.209-.384 36.235 1.697 70.785 1.357 102.284-2.681 7.868-5.359 10.49-8.038 5.243-32.155-5.243-24.117-39.339-80.389-44.583-88.428-5.246-8.038-22.493-8.038-22.493-8.038-5.247 2.679.012 50.952 5.329 53.592 5.323 2.642 34.835 53.592 34.835 53.592s-.567 2.682-77.99 10.72Z" stroke="#000" stroke-width="5" stroke-miterlimit="10"/><path d="M269.251 700.667s16.933 3.172 25.608-3.13Z" fill="#fff"/><path d="M269.251 700.667s16.933 3.172 25.608-3.13" stroke="#000" stroke-width="5" stroke-miterlimit="10"/><path d="M269.251 700.667s16.933 3.172 25.608-3.13" stroke="#000" stroke-width="5" stroke-miterlimit="10"/><path d="M530.751 700.667s-16.936 3.172-25.611-3.13Z" fill="#fff"/><path d="M530.751 700.667s-16.936 3.172-25.611-3.13" stroke="#000" stroke-width="5" stroke-miterlimit="10"/><path d="M530.751 700.667s-16.936 3.172-25.611-3.13" stroke="#000" stroke-width="5" stroke-miterlimit="10"/></svg>

<svg width="800" height="800" viewBox="0 0 800 800" fill="none" xmlns="http://www.w3.org/2000/svg">
<path d="M473.744 710.369C475.137 683.956 455.881 640.716 455.881 640.716C409.937 654.509 347.793 640.716 347.793 640.716C347.793 640.716 329.376 702.917 331.192 715.832" fill="white"/>
<path d="M473.744 710.369C475.137 683.956 455.881 640.716 455.881 640.716C409.937 654.509 347.793 640.716 347.793 640.716C347.793 640.716 329.376 702.917 331.192 715.832" stroke="black" stroke-width="5" stroke-miterlimit="10"/>
<path d="M473.744 710.369C475.137 683.956 455.881 640.716 455.881 640.716C409.937 654.509 347.793 640.716 347.793 640.716C347.793 640.716 329.376 702.917 331.192 715.832" stroke="black" stroke-width="5" stroke-miterlimit="10"/>
<path d="M456.941 651.01C421.332 660.75 384.788 661.195 346.97 649.026C352.062 604.708 345.605 562.075 345.605 562.075C355.52 533.214 351.767 509.016 351.767 509.016C351.767 509.016 362.004 505.292 375.187 495.003C388.371 484.684 384.914 449.933 384.914 449.933C384.914 449.933 385.772 450.064 401.85 450.064C417.928 450.064 418.598 449.933 418.598 449.933C418.598 449.933 415.301 484.684 428.484 495.003C441.696 505.292 453.593 509.016 453.593 509.016C453.593 509.016 448.182 533.214 458.067 562.075C458.067 562.074 451.423 605.992 456.941 651.01Z" fill="white" stroke="black" stroke-width="5" stroke-miterlimit="10"/>
<path d="M456.941 651.01C421.332 660.75 384.788 661.195 346.97 649.026C352.062 604.708 345.605 562.075 345.605 562.075C355.52 533.214 351.767 509.016 351.767 509.016C351.767 509.016 362.004 505.292 375.187 495.003C388.371 484.684 384.914 449.933 384.914 449.933C384.914 449.933 385.772 450.064 401.85 450.064C417.928 450.064 418.598 449.933 418.598 449.933C418.598 449.933 415.301 484.684 428.484 495.003C441.696 505.292 453.593 509.016 453.593 509.016C453.593 509.016 448.182 533.214 458.067 562.075C458.067 562.074 451.423 605.992 456.941 651.01Z" stroke="black" stroke-width="5" stroke-miterlimit="10"/>
<path d="M386.601 683.19C386.601 683.19 298.174 576.006 287.456 573.326C276.737 570.645 257.98 573.326 255.3 586.724C252.945 598.504 265.087 676.548 269.875 704.349C270.577 708.41 271.587 712.393 272.718 716.349C273.388 718.693 274.057 722.043 274.057 726.063C274.057 734.102 274.057 739.461 276.737 758.219C279.417 776.977 274.057 776.977 268.698 779.656C263.339 782.335 257.979 785.016 266.019 790.374C266.019 790.374 287.456 793.053 298.174 787.694C308.892 782.334 295.495 758.218 298.174 750.179C300.854 742.141 308.892 734.102 303.534 720.704C303.534 720.704 298.174 715.344 295.495 709.985C292.816 704.625 298.174 669.791 295.495 653.713L292.816 637.635C292.816 637.635 308.893 718.024 359.806 734.102C386.868 739.245 413.686 739.681 440.195 734.102C491.107 718.025 507.184 637.637 507.184 637.637L504.505 653.715C501.825 669.793 507.184 704.627 504.505 709.987C501.825 715.347 496.466 720.706 496.466 720.706C491.107 734.104 499.146 742.142 501.826 750.182C504.506 758.22 491.108 782.337 501.826 787.696C512.544 793.055 533.982 790.376 533.982 790.376C542.021 785.016 536.662 782.338 531.302 779.658C525.942 776.978 520.584 776.978 523.264 758.221C525.944 739.464 525.944 734.105 525.944 726.065C525.944 722.046 526.613 718.697 527.284 716.352C528.413 712.395 529.426 708.412 530.125 704.352C534.918 676.55 547.055 598.506 544.7 586.726C542.021 573.328 523.264 570.648 512.544 573.328C501.826 576.008 413.398 683.193 413.398 683.193" fill="white"/>
<path d="M386.601 683.19C386.601 683.19 298.174 576.006 287.456 573.326C276.737 570.645 257.98 573.326 255.3 586.724C252.945 598.504 265.087 676.548 269.875 704.349C270.577 708.41 271.587 712.393 272.718 716.349C273.388 718.693 274.057 722.043 274.057 726.063C274.057 734.102 274.057 739.461 276.737 758.219C279.417 776.977 274.057 776.977 268.698 779.656C263.339 782.335 257.979 785.016 266.019 790.374C266.019 790.374 287.456 793.053 298.174 787.694C308.892 782.334 295.495 758.218 298.174 750.179C300.854 742.141 308.892 734.102 303.534 720.704C303.534 720.704 298.174 715.344 295.495 709.985C292.816 704.625 298.174 669.791 295.495 653.713L292.816 637.635C292.816 637.635 308.893 718.024 359.806 734.102C386.868 739.245 413.686 739.681 440.195 734.102C491.107 718.025 507.184 637.637 507.184 637.637L504.505 653.715C501.825 669.793 507.184 704.627 504.505 709.987C501.825 715.347 496.466 720.706 496.466 720.706C491.107 734.104 499.146 742.142 501.826 750.182C504.506 758.22 491.108 782.337 501.826 787.696C512.544 793.055 533.982 790.376 533.982 790.376C542.021 785.016 536.662 782.338 531.302 779.658C525.942 776.978 520.584 776.978 523.264 758.221C525.944 739.464 525.944 734.105 525.944 726.065C525.944 722.046 526.613 718.697 527.284 716.352C528.413 712.395 529.426 708.412 530.125 704.352C534.918 676.55 547.055 598.506 544.7 586.726C542.021 573.328 523.264 570.648 512.544 573.328C501.826 576.008 413.398 683.193 413.398 683.193" stroke="black" stroke-width="5" stroke-miterlimit="10"/>
<path d="M386.601 683.19C386.601 683.19 298.174 576.006 287.456 573.326C276.737 570.645 257.98 573.326 255.3 586.724C252.945 598.504 265.087 676.548 269.875 704.349C270.577 708.41 271.587 712.393 272.718 716.349C273.388 718.693 274.057 722.043 274.057 726.063C274.057 734.102 274.057 739.461 276.737 758.219C279.417 776.977 274.057 776.977 268.698 779.656C263.339 782.335 257.979 785.016 266.019 790.374C266.019 790.374 287.456 793.053 298.174 787.694C308.892 782.334 295.495 758.218 298.174 750.179C300.854 742.141 308.892 734.102 303.534 720.704C303.534 720.704 298.174 715.344 295.495 709.985C292.816 704.625 298.174 669.791 295.495 653.713L292.816 637.635C292.816 637.635 308.893 718.024 359.806 734.102C386.868 739.245 413.686 739.681 440.195 734.102C491.107 718.025 507.184 637.637 507.184 637.637L504.505 653.715C501.825 669.793 507.184 704.627 504.505 709.987C501.825 715.347 496.466 720.706 496.466 720.706C491.107 734.104 499.146 742.142 501.826 750.182C504.506 758.22 491.108 782.337 501.826 787.696C512.544 793.055 533.982 790.376 533.982 790.376C542.021 785.016 536.662 782.338 531.302 779.658C525.942 776.978 520.584 776.978 523.264 758.221C525.944 739.464 525.944 734.105 525.944 726.065C525.944 722.046 526.613 718.697 527.284 716.352C528.413 712.395 529.426 708.412 530.125 704.352C534.918 676.55 547.055 598.506 544.7 586.726C542.021 573.328 523.264 570.648 512.544 573.328C501.826 576.008 413.398 683.193 413.398 683.193" stroke="black" stroke-width="5" stroke-miterlimit="10"/>
<path d="M372.492 378.044C353.16 418.123 383.678 466.259 401.239 466.492C418.799 466.722 450.579 419.405 432.307 378.831C420.79 353.257 384.678 352.781 372.492 378.044Z" fill="white" stroke="black" stroke-width="5" stroke-miterlimit="10"/>
<path d="M372.492 378.044C353.16 418.123 383.678 466.259 401.239 466.492C418.799 466.722 450.579 419.405 432.307 378.831C420.79 353.257 384.678 352.781 372.492 378.044Z" stroke="black" stroke-width="5" stroke-miterlimit="10"/>
<path d="M515.147 426.301C499.73 417.835 503.641 406.978 489.96 396.124C476.284 385.266 459.338 392.598 452.183 375.06C445.094 357.685 421.998 347.762 401.872 348.004V348.002C401.861 348.002 401.851 348.004 401.839 348.004C401.828 348.004 401.821 348.002 401.809 348.002V348.004C381.684 347.761 358.585 357.684 351.498 375.06C344.34 392.598 327.397 385.266 313.719 396.124C300.04 406.978 303.949 417.835 288.534 426.301C273.118 434.769 271.864 433.983 272.467 440.633C273.357 450.436 308.412 446.558 334.702 447.228C339.854 447.361 358.622 452.576 363.641 453.754C373.909 456.156 387.095 455.816 387.37 452.136C387.803 446.275 385.926 432.33 381.924 425.193C377.926 418.055 369.665 420.358 369.665 409.885C369.665 400.113 373.676 403.919 382.902 395.231C391.036 387.569 399.177 378.698 401.839 371.491C404.503 378.698 412.647 387.569 420.779 395.231C430.004 403.919 434.016 400.113 434.016 409.885C434.016 420.358 425.755 418.055 421.755 425.193C417.756 432.329 415.877 446.274 416.312 452.136C416.582 455.816 429.772 456.156 440.037 453.754C445.054 452.576 463.824 447.361 468.976 447.228C495.268 446.558 530.323 450.436 531.213 440.633C531.819 433.983 530.56 434.769 515.147 426.301Z" fill="#100200" stroke="black" stroke-width="5" stroke-miterlimit="10"/>
<path d="M363.728 502.822C363.728 502.822 378.042 524.369 402.043 524.369C426.048 524.369 440.362 502.822 440.362 502.822" fill="white"/>
<path d="M363.728 502.822C363.728 502.822 378.042 524.369 402.043 524.369C426.048 524.369 440.362 502.822 440.362 502.822" stroke="black" stroke-width="5" stroke-miterlimit="10"/>
<path d="M363.728 502.822C363.728 502.822 378.042 524.369 402.043 524.369C426.048 524.369 440.362 502.822 440.362 502.822" stroke="black" stroke-width="5" stroke-miterlimit="10"/>
<path d="M389.566 626.918C393.296 627.307 394.813 581.364 397.433 578.685L400.057 576.006C400.057 576.006 402.68 573.326 402.68 584.043V633.575C402.68 638.516 398.042 642.075 393.398 640.7C393.398 640.7 392.531 640.433 392.19 640.316C355.956 642.013 321.406 641.673 289.906 637.635C282.039 632.276 279.416 629.597 284.662 605.48C289.906 581.363 324.002 525.091 329.246 517.052C334.49 509.014 351.737 509.014 351.737 509.014C356.984 511.693 349.022 559.966 343.698 562.606C338.378 565.248 311.573 616.198 311.573 616.198C311.573 616.198 312.143 618.88 389.566 626.918Z" fill="white" stroke="black" stroke-width="5" stroke-miterlimit="10"/>
<path d="M389.566 626.918C393.296 627.307 394.813 581.364 397.433 578.685L400.057 576.006C400.057 576.006 402.68 573.326 402.68 584.043V633.575C402.68 638.516 398.042 642.075 393.398 640.7C393.398 640.7 392.531 640.433 392.19 640.316C355.956 642.013 321.406 641.673 289.906 637.635C282.039 632.276 279.416 629.597 284.662 605.48C289.906 581.363 324.002 525.091 329.246 517.052C334.49 509.014 351.737 509.014 351.737 509.014C356.984 511.693 349.022 559.966 343.698 562.606C338.378 565.248 311.573 616.198 311.573 616.198C311.573 616.198 312.143 618.88 389.566 626.918Z" stroke="black" stroke-width="5" stroke-miterlimit="10"/>
<path d="M415.795 626.918C412.063 627.307 410.548 581.364 407.924 578.685L405.304 576.006C405.304 576.006 402.68 573.326 402.68 584.043V633.575C402.68 638.516 407.317 642.075 411.961 640.7C411.961 640.7 412.827 640.433 413.17 640.316C449.405 642.013 483.955 641.673 515.454 637.635C523.322 632.276 525.944 629.597 520.697 605.48C515.454 581.363 481.358 525.091 476.114 517.052C470.868 509.014 453.621 509.014 453.621 509.014C448.374 511.693 453.633 559.966 458.95 562.606C464.273 565.248 493.785 616.198 493.785 616.198C493.785 616.198 493.218 618.88 415.795 626.918Z" fill="white" stroke="black" stroke-width="5" stroke-miterlimit="10"/>
<path d="M415.795 626.918C412.063 627.307 410.548 581.364 407.924 578.685L405.304 576.006C405.304 576.006 402.68 573.326 402.68 584.043V633.575C402.68 638.516 407.317 642.075 411.961 640.7C411.961 640.7 412.827 640.433 413.17 640.316C449.405 642.013 483.955 641.673 515.454 637.635C523.322 632.276 525.944 629.597 520.697 605.48C515.454 581.363 481.358 525.091 476.114 517.052C470.868 509.014 453.621 509.014 453.621 509.014C448.374 511.693 453.633 559.966 458.95 562.606C464.273 565.248 493.785 616.198 493.785 616.198C493.785 616.198 493.218 618.88 415.795 626.918Z" stroke="black" stroke-width="5" stroke-miterlimit="10"/>
<path d="M269.251 700.667C269.251 700.667 286.184 703.839 294.859 697.537Z" fill="white"/>
<path d="M269.251 700.667C269.251 700.667 286.184 703.839 294.859 697.537" stroke="black" stroke-width="5" stroke-miterlimit="10"/>
<path d="M269.251 700.667C269.251 700.667 286.184 703.839 294.859 697.537" stroke="black" stroke-width="5" stroke-miterlimit="10"/>
<path d="M530.751 700.667C530.751 700.667 513.815 703.839 505.14 697.537Z" fill="white"/>
<path d="M530.751 700.667C530.751 700.667 513.815 703.839 505.14 697.537" stroke="black" stroke-width="5" stroke-miterlimit="10"/>
<path d="M530.751 700.667C530.751 700.667 513.815 703.839 505.14 697.537" stroke="black" stroke-width="5" stroke-miterlimit="10"/>
</svg>
